src/luts/rec2020_to_rec709.cube
LUT_3D_SIZE 9
0.000000 0.000000 0.000000
0.182420 0.000000 0.000000
0.339462 0.000000 0.000000
0.496504 0.000000 0.000000
0.653546 0.000000 0.000000
0.810589 0.000000 0.000000
0.967631 0.000000 0.000000
1.000000 0.000000 0.000000
1.000000 0.000000 0.000000
0.000000 0.137938 0.000000
0.132201 0.125840 0.000000
0.312379 0.103514 0.000000
0.478233 0.062243 0.000000
0.639927 0.003238 0.000000
0.799827 0.000000 0.000000
0.958792 0.000000 0.000000
1.000000 0.000000 0.000000
1.000000 0.000000 0.000000
0.000000 0.270157 0.000000
0.011328 0.263261 0.000000
0.261220 0.251308 0.000000
0.445858 0.231664 0.000000
0.616345 0.201891 0.000000
0.781397 0.157063 0.000000
0.943746 0.082833 0.000000
1.000000 0.000000 0.000000
1.000000 0.000000 0.000000
0.000000 0.402377 0.000000
0.000000 0.397661 0.000000
0.156531 0.389616 0.000000
0.390239 0.376777 0.000000
0.577664 0.358298 0.000000
0.751764 0.332989 0.000000
0.919810 0.298970 0.000000
1.000000 0.252855 0.000000
1.000000 0.187146 0.000000
0.000000 0.534597 0.000000
0.000000 0.531062 0.000000
0.000000 0.525072 0.000000
0.297349 0.515617 0.000000
0.519257 0.502245 0.000000
0.708594 0.484420 0.000000
0.885544 0.461433 0.000000
1.000000 0.432293 0.000000
1.000000 0.395502 0.000000
0.000000 0.666817 0.000000
0.000000 0.664016 0.000000
0.000000 0.659286 0.000000
0.105362 0.651858 0.000000
0.431997 0.641440 0.000000
0.648276 0.627714 0.000000
0.839007 0.610306 0.000000
1.000000 0.588749 0.000000
1.000000 0.562428 0.000000
0.000000 0.799036 0.000000
0.000000 0.796733 0.000000
0.000000 0.792849 0.000000
0.000000 0.786768 0.000000
0.290759 0.778277 0.000000
0.564348 0.767161 0.000000
0.777295 0.753183 0.000000
0.969087 0.736066 0.000000
1.000000 0.715478 0.000000
0.000000 0.931256 0.000000
0.000000 0.929309 0.000000
0.000000 0.926030 0.000000
0.000000 0.920907 0.000000
0.000000 0.913772 0.000000
0.442526 0.904465 0.000000
0.695576 0.892820 0.000000
0.906313 0.878651 0.000000
1.000000 0.861748 0.000000
0.000000 1.000000 0.000000
0.000000 1.000000 0.000000
0.000000 1.000000 0.000000
0.000000 1.000000 0.000000
0.000000 1.000000 0.000000
0.231333 1.000000 0.000000
0.584525 1.000000 0.000000
0.826170 1.000000 0.000000
1.000000 1.000000 0.000000
0.000000 0.000000 0.136599
0.176795 0.000000 0.134872
0.336216 0.000000 0.131935
0.494276 0.000000 0.127276
0.651874 0.000000 0.120637
0.809263 0.000000 0.111680
0.966540 0.000000 0.099928
1.000000 0.000000 0.084629
1.000000 0.000000 0.065193
0.000000 0.137150 0.126821
0.125000 0.125000 0.125000
0.308867 0.102559 0.121902
0.475918 0.061147 0.116977
0.638217 0.002142 0.109934
0.798482 0.000000 0.100384
0.957690 0.000000 0.087753
1.000000 0.000000 0.071211
1.000000 0.000000 0.051989
0.000000 0.269700 0.109125
0.001764 0.262793 0.107111
0.257082 0.250821 0.103676
0.443373 0.231140 0.098188
0.614566 0.201303 0.090279
0.780017 0.156348 0.079191
0.942625 0.081743 0.065471
1.000000 0.000000 0.049043
1.000000 0.000000 0.029821
0.000000 0.402063 0.077029
0.000000 0.397342 0.074646
0.150184 0.389292 0.070646
0.387402 0.376442 0.064425
0.575759 0.357946 0.055826
0.750325 0.332612 0.044721
0.918656 0.298553 0.031002
1.000000 0.252370 0.014573
1.000000 0.186521 0.000000
0.000000 0.534361 0.029380
0.000000 0.530824 0.026997
0.000000 0.524832 0.022997
0.293673 0.515372 0.016776
0.517130 0.501994 0.008177
0.707061 0.484158 0.000000
0.884340 0.461158 0.000000
1.000000 0.432000 0.000000
1.000000 0.395182 0.000000
0.000000 0.666629 0.000000
0.000000 0.663828 0.000000
0.000000 0.659096 0.000000
0.096935 0.651666 0.000000
0.429433 0.641244 0.000000
0.646590 0.627514 0.000000
0.837730 0.610101 0.000000
1.000000 0.588535 0.000000
1.000000 0.562204 0.000000
0.000000 0.798882 0.000000
0.000000 0.796578 0.000000
0.000000 0.792693 0.000000
0.000000 0.786611 0.000000
0.287005 0.778119 0.000000
0.562396 0.767000 0.000000
0.775907 0.753018 0.000000
0.967998 0.735897 0.000000
1.000000 0.715304 0.000000
0.000000 0.931126 0.000000
0.000000 0.929178 0.000000
0.000000 0.925899 0.000000
0.000000 0.920775 0.000000
0.000000 0.913638 0.000000
0.440022 0.904330 0.000000
0.694012 0.892683 0.000000
0.905141 0.878512 0.000000
1.000000 0.861606 0.000000
0.000000 1.000000 0.000000
0.000000 1.000000 0.000000
0.000000 1.000000 0.000000
0.000000 1.000000 0.000000
0.000000 1.000000 0.000000
0.226726 1.000000 0.000000
0.582644 1.000000 0.000000
0.824872 1.000000 0.000000
1.000000 1.000000 0.000000
0.000000 0.000000 0.268072
0.167023 0.000000 0.267070
0.330699 0.000000 0.265380
0.490513 0.000000 0.262733
0.649057 0.000000 0.259035
0.807032 0.000000 0.254188
0.964705 0.000000 0.248086
1.000000 0.000000 0.240602
1.000000 0.000000 0.231581
0.000000 0.135821 0.262477
0.112229 0.123582 0.261456
0.302887 0.100943 0.259733
0.472006 0.059307 0.257035
0.635336 0.000302 0.253263
0.796218 0.000000 0.248318
0.955837 0.000000 0.242087
1.000000 0.000000 0.234437
1.000000 0.000000 0.225205
0.000000 0.268931 0.252836
0.000000 0.262006 0.251781
0.250000 0.250000 0.250000
0.439170 0.230259 0.247209
0.611567 0.200314 0.243304
0.777695 0.155140 0.238179
0.940739 0.079655 0.231713
1.000000 0.000000 0.223762
1.000000 0.000000 0.214143
0.000000 0.401534 0.237170
0.000000 0.396808 0.236054
0.139058 0.388746 0.234170
0.382595 0.375878 0.231214
0.572547 0.357354 0.227074
0.747903 0.331977 0.221630
0.916715 0.297851 0.214744
1.000000 0.251554 0.206248
1.000000 0.185469 0.195924
0.000000 0.533964 0.213918
0.000000 0.530425 0.212699
0.000000 0.524427 0.210640
0.287404 0.514960 0.207404
0.513537 0.501570 0.202861
0.704478 0.483719 0.196867
0.882316 0.460697 0.189250
1.000000 0.431508 0.179793
1.000000 0.394645 0.168204
0.000000 0.666315 0.180333
0.000000 0.663512 0.178932
0.000000 0.658777 0.176560
0.081695 0.651343 0.172821
0.425093 0.640917 0.167547
0.643748 0.627179 0.160540
0.835582 0.609755 0.151552
1.000000 0.588176 0.140241
1.000000 0.561827 0.126116
0.000000 0.798623 0.130381
0.000000 0.796318 0.128595
0.000000 0.792432 0.125558
0.000000 0.786348 0.120733
0.280601 0.777852 0.113842
0.559104 0.766729 0.104517
0.773572 0.752742 0.092222
0.966167 0.735614 0.075939
1.000000 0.715012 0.056717
0.000000 0.930907 0.047359
0.000000 0.928959 0.044976
0.000000 0.925679 0.040975
0.000000 0.920553 0.034755
0.000000 0.913415 0.026156
0.435787 0.904104 0.015051
0.691377 0.892454 0.001331
0.903168 0.878279 0.000000
1.000000 0.861368 0.000000
0.000000 1.000000 0.000000
0.000000 1.000000 0.000000
0.000000 1.000000 0.000000
0.000000 1.000000 0.000000
0.000000 1.000000 0.000000
0.218807 1.000000 0.000000
0.579472 1.000000 0.000000
0.822687 1.000000 0.000000
1.000000 1.000000 0.000000
0.000000 0.000000 0.399545
0.150892 0.000000 0.398857
0.321944 0.000000 0.397698
0.484602 0.000000 0.395889
0.644650 0.000000 0.393376
0.803550 0.000000 0.390106
0.961845 0.000000 0.386030
1.000000 0.000000 0.381092
1.000000 0.000000 0.375236
0.000000 0.133736 0.395714
0.090246 0.121354 0.395019
0.293366 0.098399 0.393849
0.465858 0.056446 0.392023
0.630827 0.000000 0.389485
0.792684 0.000000 0.386184
0.952947 0.000000 0.382066
1.000000 0.000000 0.377079
1.000000 0.000000 0.371161
0.000000 0.267730 0.389199
0.000000 0.260777 0.388492
0.238625 0.248719 0.387303
0.432554 0.228884 0.385447
0.606872 0.198767 0.382867
0.774069 0.153249 0.379509
0.937797 0.076793 0.375321
1.000000 0.000000 0.370246
1.000000 0.000000 0.364221
0.000000 0.400711 0.378852
0.000000 0.395975 0.378127
0.120372 0.387897 0.376906
0.375000 0.375000 0.375000
0.567514 0.356432 0.372350
0.744120 0.330988 0.368900
0.913689 0.296757 0.364594
1.000000 0.250280 0.359373
1.000000 0.183822 0.353170
0.000000 0.533346 0.364082
0.000000 0.529803 0.363328
0.000000 0.523798 0.362059
0.277401 0.514319 0.360077
0.507900 0.500912 0.357321
0.700442 0.483036 0.353730
0.879159 0.459979 0.349245
1.000000 0.430741 0.343802
1.000000 0.393808 0.337327
0.000000 0.665825 0.344109
0.000000 0.663020 0.343313
0.000000 0.658282 0.341973
0.056481 0.650842 0.339880
0.418255 0.640406 0.336967
0.639302 0.626657 0.333168
0.832230 0.609217 0.328418
1.000000 0.587618 0.322644
1.000000 0.561242 0.315763
0.000000 0.798220 0.317801
0.000000 0.795914 0.316944
0.000000 0.792026 0.315499
0.000000 0.785938 0.313240
0.270373 0.777438 0.310093
0.553944 0.766308 0.305984
0.769925 0.752313 0.300836
0.963311 0.735174 0.294563
1.000000 0.714558 0.287065
0.000000 0.930566 0.283349
0.000000 0.928618 0.282395
0.000000 0.925336 0.280789
0.000000 0.920208 0.278273
0.000000 0.913067 0.274762
0.429119 0.903753 0.270167
0.687259 0.892097 0.264392
0.900091 0.877916 0.257325
1.000000 0.860997 0.248833
0.000000 1.000000 0.237471
0.000000 1.000000 0.236356
0.000000 1.000000 0.234473
0.000000 1.000000 0.231521
0.000000 1.000000 0.227385
0.205992 1.000000 0.221948
0.574502 1.000000 0.215071
0.819277 1.000000 0.206585
1.000000 1.000000 0.196276
0.000000 0.000000 0.531018
0.126234 0.000000 0.530501
0.309462 0.000000 0.529632
0.476309 0.000000 0.528277
0.638506 0.000000 0.526398
0.798709 0.000000 0.523961
0.957876 0.000000 0.520934
1.000000 0.000000 0.517286
1.000000 0.000000 0.512984
0.000000 0.130815 0.528146
0.055749 0.118228 0.527626
0.279721 0.094815 0.526751
0.457221 0.052490 0.525389
0.624539 0.000000 0.523499
0.787770 0.000000 0.521048
0.948936 0.000000 0.518004
1.000000 0.000000 0.514335
1.000000 0.000000 0.510007
0.000000 0.266063 0.523287
0.000000 0.259070 0.522761
0.222083 0.246939 0.521879
0.423238 0.226970 0.520503
0.600319 0.196613 0.518595
0.769026 0.150605 0.516121
0.933715 0.072838 0.513047
1.000000 0.000000 0.509340
1.000000 0.000000 0.504969
0.000000 0.399570 0.515637
0.000000 0.394821 0.515104
0.090773 0.386719 0.514208
0.364250 0.373783 0.512811
0.560480 0.355154 0.510874
0.738856 0.329617 0.508361
0.909486 0.295239 0.505239
1.000000 0.248510 0.501473
1.000000 0.181527 0.497031
0.000000 0.532491 0.504868
0.000000 0.528942 0.504324
0.000000 0.522927 0.503408
0.263014 0.513431 0.501980
0.500000 0.500000 0.500000
0.694822 0.482090 0.497431
0.874774 0.458985 0.494238
1.000000 0.429679 0.490387
1.000000 0.392647 0.485841
0.000000 0.665148 0.490603
0.000000 0.662339 0.490042
0.000000 0.657596 0.489099
0.021969 0.650148 0.487629
0.408618 0.639700 0.485589
0.633103 0.625934 0.482942
0.827571 0.608473 0.479651
1.000000 0.586845 0.475680
1.000000 0.560431 0.470990
0.000000 0.797663 0.472374
0.000000 0.795355 0.471792
0.000000 0.791464 0.470811
0.000000 0.785371 0.469283
0.255635 0.776864 0.467162
0.546728 0.765726 0.464409
0.764852 0.751718 0.460984
0.959349 0.734565 0.456849
1.000000 0.713930 0.451963
0.000000 0.930095 0.449565
0.000000 0.928146 0.448952
0.000000 0.924862 0.447922
0.000000 0.919731 0.446315
0.000000 0.912586 0.444084
0.419728 0.903266 0.441186
0.681522 0.891604 0.437579
0.895818 0.877414 0.433221
1.000000 0.860484 0.428065
0.000000 1.000000 0.421311
0.000000 1.000000 0.420658
0.000000 1.000000 0.419558
0.000000 1.000000 0.417843
0.000000 1.000000 0.415460
0.187109 1.000000 0.412362
0.567558 1.000000 0.408503
0.814538 1.000000 0.403835
1.000000 1.000000 0.398304
0.000000 0.000000 0.662491
0.088409 0.000000 0.662081
0.292617 0.000000 0.661392
0.465377 0.000000 0.660318
0.630476 0.000000 0.658832
0.792409 0.000000 0.656907
0.952722 0.000000 0.654520
1.000000 0.000000 0.651649
1.000000 0.000000 0.648274
0.000000 0.126975 0.660215
0.011177 0.114108 0.659803
0.261156 0.090063 0.659111
0.445819 0.047382 0.658034
0.616317 0.000000 0.656542
0.781375 0.000000 0.654609
0.943729 0.000000 0.652214
1.000000 0.000000 0.649332
1.000000 0.000000 0.645944
0.000000 0.263896 0.656374
0.000000 0.256851 0.655960
0.199039 0.244624 0.655264
0.410899 0.224479 0.654180
0.591743 0.193802 0.652678
0.762460 0.147139 0.650734
0.928413 0.067729 0.648323
1.000000 0.000000 0.645423
1.000000 0.000000 0.642013
0.000000 0.398092 0.650354
0.000000 0.393326 0.649936
0.046249 0.385193 0.649233
0.349899 0.372206 0.648138
0.551257 0.353497 0.646622
0.731997 0.327838 0.644658
0.904027 0.293267 0.642223
1.000000 0.246208 0.639294
1.000000 0.178528 0.635849
0.000000 0.531385 0.641934
0.000000 0.527828 0.641510
0.000000 0.521800 0.640798
0.243330 0.512283 0.639688
0.489605 0.498820 0.638150
0.687491 0.480865 0.636158
0.869074 0.457698 0.633688
1.000000 0.428304 0.630718
1.000000 0.391144 0.627223
0.000000 0.664272 0.630884
0.000000 0.661459 0.630452
0.000000 0.656709 0.629726
0.000000 0.649250 0.628596
0.395830 0.638787 0.627029
0.625000 0.625000 0.625000
0.821513 0.607510 0.622483
1.000000 0.585845 0.619456
1.000000 0.559381 0.615893
0.000000 0.796943 0.616943
0.000000 0.794632 0.616501
0.000000 0.790737 0.615758
0.000000 0.784639 0.614600
0.235416 0.776123 0.612996
0.537261 0.764973 0.610918
0.758247 0.750950 0.608340
0.954204 0.733777 0.605237
1.000000 0.713118 0.601587
0.000000 0.929487 0.599801
0.000000 0.927536 0.599345
0.000000 0.924250 0.598579
0.000000 0.919115 0.597386
0.000000 0.911965 0.595734
0.407284 0.902638 0.593592
0.674036 0.890966 0.590934
0.890267 0.876765 0.587736
1.000000 0.859821 0.583970
0.000000 1.000000 0.579067
0.000000 1.000000 0.578594
0.000000 1.000000 0.577799
0.000000 1.000000 0.576562
0.000000 1.000000 0.574846
0.160199 1.000000 0.572623
0.558456 1.000000 0.569863
0.808373 1.000000 0.566540
1.000000 1.000000 0.562626
0.000000 0.000000 0.793964
0.033260 0.000000 0.793627
0.270496 0.000000 0.793059
0.451504 0.000000 0.792177
0.620405 0.000000 0.790955
0.784551 0.000000 0.789373
0.946313 0.000000 0.787415
1.000000 0.000000 0.785063
1.000000 0.000000 0.782302
0.000000 0.122117 0.792091
0.000000 0.108880 0.791753
0.236464 0.083982 0.791184
0.431316 0.041071 0.790299
0.605998 0.000000 0.789074
0.773395 0.000000 0.787489
0.937251 0.000000 0.785526
1.000000 0.000000 0.783168
1.000000 0.000000 0.780399
0.000000 0.261197 0.788936
0.000000 0.254086 0.788597
0.167148 0.241737 0.788025
0.395131 0.221369 0.787137
0.580966 0.190284 0.785906
0.754263 0.142774 0.784314
0.921816 0.061418 0.782342
1.000000 0.000000 0.779973
1.000000 0.000000 0.777192
0.000000 0.396259 0.784003
0.000000 0.391471 0.783661
0.000000 0.383300 0.783086
0.331355 0.370248 0.782191
0.539637 0.351440 0.780952
0.723427 0.325628 0.779349
0.897232 0.290815 0.777363
1.000000 0.243337 0.774978
1.000000 0.174768 0.772178
0.000000 0.530015 0.777128
0.000000 0.526448 0.776783
0.000000 0.520404 0.776202
0.216916 0.510860 0.775299
0.476445 0.497358 0.774048
0.678316 0.479347 0.772429
0.861976 0.456102 0.770424
1.000000 0.426599 0.768016
1.000000 0.389279 0.765188
0.000000 0.663188 0.768151
0.000000 0.660371 0.767801
0.000000 0.655612 0.767213
0.000000 0.648140 0.766298
0.379452 0.637657 0.765031
0.614834 0.623844 0.763392
0.813959 0.606319 0.761361
0.998129 0.584607 0.758921
1.000000 0.558082 0.756056
0.000000 0.796052 0.756900
0.000000 0.793739 0.756545
0.000000 0.789839 0.755947
0.000000 0.783733 0.755017
0.208160 0.775206 0.753730
0.525321 0.764042 0.752064
0.750000 0.750000 0.750000
0.947806 0.732803 0.747520
1.000000 0.712114 0.744608
0.000000 0.928734 0.743186
0.000000 0.926781 0.742823
0.000000 0.923493 0.742214
0.000000 0.918353 0.741265
0.000000 0.911196 0.739952
0.391373 0.901860 0.738252
0.664664 0.890178 0.736146
0.883355 0.875962 0.733616
1.000000 0.859001 0.730644
0.000000 1.000000 0.726784
0.000000 1.000000 0.726413
0.000000 1.000000 0.725789
0.000000 1.000000 0.724817
0.000000 1.000000 0.723472
0.121301 1.000000 0.721730
0.546995 1.000000 0.719572
0.800684 1.000000 0.716979
1.000000 1.000000 0.713932
0.000000 0.000000 0.925437
0.000000 0.000000 0.925152
0.241669 0.000000 0.924672
0.434307 0.000000 0.923926
0.608113 0.000000 0.922894
0.775026 0.000000 0.921559
0.938574 0.000000 0.919907
1.000000 0.000000 0.917924
1.000000 0.000000 0.915598
0.000000 0.116123 0.923854
0.000000 0.102400 0.923568
0.203609 0.076198 0.923088
0.413285 0.033513 0.922341
0.593392 0.000000 0.921306
0.763719 0.000000 0.919969
0.929428 0.000000 0.918314
1.000000 0.000000 0.916327
1.000000 0.000000 0.913996
0.000000 0.257932 0.921190
0.000000 0.250740 0.920903
0.121397 0.238240 0.920422
0.375401 0.217594 0.919672
0.567778 0.186000 0.918634
0.744318 0.137416 0.917292
0.913847 0.053861 0.915632
1.000000 0.000000 0.913639
1.000000 0.000000 0.911301
0.000000 0.394053 0.917031
0.000000 0.389238 0.916743
0.000000 0.381021 0.916258
0.307776 0.367891 0.915505
0.525374 0.348961 0.914462
0.713019 0.322962 0.913114
0.889021 0.287853 0.911444
1.000000 0.239860 0.909441
1.000000 0.170180 0.907091
0.000000 0.528370 0.911247
0.000000 0.524792 0.910957
0.000000 0.518727 0.910469
0.181214 0.509151 0.909710
0.460184 0.495601 0.908660
0.667153 0.477523 0.907302
0.853391 0.454184 0.905621
1.000000 0.424548 0.903604
1.000000 0.387034 0.901237
0.000000 0.661887 0.903717
0.000000 0.659064 0.903424
0.000000 0.654296 0.902932
0.000000 0.646807 0.902166
0.358889 0.636302 0.901106
0.602423 0.622456 0.899735
0.804813 0.604889 0.898039
0.990837 0.583121 0.896003
1.000000 0.556523 0.893614
0.000000 0.794984 0.894317
0.000000 0.792667 0.894021
0.000000 0.788761 0.893523
0.000000 0.782646 0.892748
0.171022 0.774107 0.891676
0.510646 0.762925 0.890289
0.739994 0.748860 0.888573
0.940080 0.731635 0.886513
1.000000 0.710909 0.884096
0.000000 0.927832 0.882916
0.000000 0.925877 0.882616
0.000000 0.922585 0.882111
0.000000 0.917440 0.881325
0.000000 0.910275 0.880238
0.371449 0.900929 0.878831
0.653252 0.889232 0.877090
0.875000 0.875000 0.875000
1.000000 0.858018 0.872548
0.000000 1.000000 0.869368
0.000000 1.000000 0.869062
0.000000 1.000000 0.868549
0.000000 1.000000 0.867750
0.000000 1.000000 0.866643
0.060576 1.000000 0.865213
0.532935 1.000000 0.863441
0.791371 1.000000 0.861315
1.000000 1.000000 0.858820
0.000000 0.000000 1.000000
0.000000 0.000000 1.000000
0.203608 0.000000 1.000000
0.413285 0.000000 1.000000
0.593392 0.000000 1.000000
0.763719 0.000000 1.000000
0.929428 0.000000 1.000000
1.000000 0.000000 1.000000
1.000000 0.000000 1.000000
0.000000 0.108840 1.000000
0.000000 0.094478 1.000000
0.158541 0.067356 1.000000
0.391151 0.024671 1.000000
0.578278 0.000000 1.000000
0.752228 0.000000 1.000000
0.920182 0.000000 1.000000
1.000000 0.000000 1.000000
1.000000 0.000000 1.000000
0.000000 0.254065 1.000000
0.000000 0.246774 1.000000
0.049489 0.234091 1.000000
0.350961 0.213108 1.000000
0.551933 0.180886 1.000000
0.732498 0.130952 1.000000
0.904425 0.045019 1.000000
1.000000 0.000000 1.000000
1.000000 0.000000 1.000000
0.000000 0.391456 1.000000
0.000000 0.386610 1.000000
0.000000 0.378337 1.000000
0.277871 0.365114 1.000000
0.508162 0.346039 1.000000
0.700630 0.319817 1.000000
0.879305 0.284352 1.000000
1.000000 0.235736 1.000000
1.000000 0.164689 1.000000
0.000000 0.526438 1.000000
0.000000 0.522846 1.000000
0.000000 0.516759 1.000000
0.130665 0.507144 1.000000
0.440394 0.493538 1.000000
0.653835 0.475381 1.000000
0.843224 0.451930 1.000000
1.000000 0.422136 1.000000
1.000000 0.384391 1.000000
0.000000 0.660362 1.000000
0.000000 0.657532 1.000000
0.000000 0.652752 1.000000
0.000000 0.645244 1.000000
0.333298 0.634711 1.000000
0.587552 0.620828 1.000000
0.793966 0.603212 1.000000
0.982230 0.581378 1.000000
1.000000 0.554692 1.000000
0.000000 0.793732 1.000000
0.000000 0.791411 1.000000
0.000000 0.787499 1.000000
0.000000 0.781373 1.000000
0.117497 0.772818 1.000000
0.492908 0.761616 1.000000
0.728098 0.747525 1.000000
0.930951 0.730265 1.000000
1.000000 0.709496 1.000000
0.000000 0.926776 1.000000
0.000000 0.924818 1.000000
0.000000 0.921522 1.000000
0.000000 0.916370 1.000000
0.000000 0.909196 1.000000
0.346743 0.899837 1.000000
0.639626 0.888125 1.000000
0.865112 0.873873 1.000000
1.000000 0.856867 1.000000
0.000000 1.000000 1.000000
0.000000 1.000000 1.000000
0.000000 1.000000 1.000000
0.000000 1.000000 1.000000
0.000000 1.000000 1.000000
0.000000 1.000000 1.000000
0.515982 1.000000 1.000000
0.780320 1.000000 1.000000
1.000000 1.000000 1.000000
