src/luts/rec2020_to_rec709.cube
LUT_3D_SIZE 5
0.000000 0.000000 0.000000
0.339462 0.000000 0.000000
0.653546 0.000000 0.000000
0.967631 0.000000 0.000000
1.000000 0.000000 0.000000
0.000000 0.270157 0.000000
0.261220 0.251308 0.000000
0.616345 0.201891 0.000000
0.943746 0.082833 0.000000
1.000000 0.000000 0.000000
0.000000 0.534597 0.000000
0.000000 0.525072 0.000000
0.519257 0.502245 0.000000
0.885544 0.461433 0.000000
1.000000 0.395502 0.000000
0.000000 0.799036 0.000000
0.000000 0.792849 0.000000
0.290759 0.778277 0.000000
0.777295 0.753183 0.000000
1.000000 0.715478 0.000000
0.000000 1.000000 0.000000
0.000000 1.000000 0.000000
0.000000 1.000000 0.000000
0.584525 1.000000 0.000000
1.000000 1.000000 0.000000
0.000000 0.000000 0.268072
0.330699 0.000000 0.265380
0.649057 0.000000 0.259035
0.964705 0.000000 0.248086
1.000000 0.000000 0.231581
0.000000 0.268931 0.252836
0.250000 0.250000 0.250000
0.611567 0.200314 0.243304
0.940739 0.079655 0.231713
1.000000 0.000000 0.214143
0.000000 0.533964 0.213918
0.000000 0.524427 0.210640
0.513537 0.501570 0.202861
0.882316 0.460697 0.189250
1.000000 0.394645 0.168204
0.000000 0.798623 0.130381
0.000000 0.792432 0.125558
0.280601 0.777852 0.113842
0.773572 0.752742 0.092222
1.000000 0.715012 0.056717
0.000000 1.000000 0.000000
0.000000 1.000000 0.000000
0.000000 1.000000 0.000000
0.579472 1.000000 0.000000
1.000000 1.000000 0.000000
0.000000 0.000000 0.531018
0.309462 0.000000 0.529632
0.638506 0.000000 0.526398
0.957876 0.000000 0.520934
1.000000 0.000000 0.512984
0.000000 0.266063 0.523287
0.222083 0.246939 0.521879
0.600319 0.196613 0.518595
0.933715 0.072838 0.513047
1.000000 0.000000 0.504969
0.000000 0.532491 0.504868
0.000000 0.522927 0.503408
0.500000 0.500000 0.500000
0.874774 0.458985 0.494238
1.000000 0.392647 0.485841
0.000000 0.797663 0.472374
0.000000 0.791464 0.470811
0.255635 0.776864 0.467162
0.764852 0.751718 0.460984
1.000000 0.713930 0.451963
0.000000 1.000000 0.421311
0.000000 1.000000 0.419558
0.000000 1.000000 0.415460
0.567558 1.000000 0.408503
1.000000 1.000000 0.398304
0.000000 0.000000 0.793964
0.270496 0.000000 0.793059
0.620405 0.000000 0.790955
0.946313 0.000000 0.787415
1.000000 0.000000 0.782302
0.000000 0.261197 0.788936
0.167148 0.241737 0.788025
0.580966 0.190284 0.785906
0.921816 0.061418 0.782342
1.000000 0.000000 0.777192
0.000000 0.530015 0.777128
0.000000 0.520404 0.776202
0.476445 0.497358 0.774048
0.861976 0.456102 0.770424
1.000000 0.389279 0.765188
0.000000 0.796052 0.756900
0.000000 0.789839 0.755947
0.208160 0.775206 0.753730
0.750000 0.750000 0.750000
1.000000 0.712114 0.744608
0.000000 1.000000 0.726784
0.000000 1.000000 0.725789
0.000000 1.000000 0.723472
0.546995 1.000000 0.719572
1.000000 1.000000 0.713932
0.000000 0.000000 1.000000
0.203608 0.000000 1.000000
0.593392 0.000000 1.000000
0.929428 0.000000 1.000000
1.000000 0.000000 1.000000
0.000000 0.254065 1.000000
0.049489 0.234091 1.000000
0.551933 0.180886 1.000000
0.904425 0.045019 1.000000
1.000000 0.000000 1.000000
0.000000 0.526438 1.000000
0.000000 0.516759 1.000000
0.440394 0.493538 1.000000
0.843224 0.451930 1.000000
1.000000 0.384391 1.000000
0.000000 0.793732 1.000000
0.000000 0.787499 1.000000
0.117497 0.772818 1.000000
0.728098 0.747525 1.000000
1.000000 0.709496 1.000000
0.000000 1.000000 1.000000
0.000000 1.000000 1.000000
0.000000 1.000000 1.000000
0.515982 1.000000 1.000000
1.000000 1.000000 1.000000
