src/luts/rec2020_to_rec709.cube
LUT_3D_SIZE 33
0.000000 0.000000 0.000000
0.051890 0.000000 0.000000
0.102514 0.000000 0.000000
0.143159 0.000000 0.000000
0.182420 0.000000 0.000000
0.221680 0.000000 0.000000
0.260941 0.000000 0.000000
0.300201 0.000000 0.000000
0.339462 0.000000 0.000000
0.378722 0.000000 0.000000
0.417983 0.000000 0.000000
0.457244 0.000000 0.000000
0.496504 0.000000 0.000000
0.535765 0.000000 0.000000
0.575025 0.000000 0.000000
0.614286 0.000000 0.000000
0.653546 0.000000 0.000000
0.692807 0.000000 0.000000
0.732067 0.000000 0.000000
0.771328 0.000000 0.000000
0.810589 0.000000 0.000000
0.849849 0.000000 0.000000
0.889110 0.000000 0.000000
0.928370 0.000000 0.000000
0.967631 0.000000 0.000000
1.000000 0.000000 0.000000
1.000000 0.000000 0.000000
1.000000 0.000000 0.000000
1.000000 0.000000 0.000000
1.000000 0.000000 0.000000
1.000000 0.000000 0.000000
1.000000 0.000000 0.000000
1.000000 0.000000 0.000000
0.000000 0.035403 0.000000
0.033527 0.031511 0.000000
0.085606 0.027619 0.000000
0.129899 0.023693 0.000000
0.171493 0.019052 0.000000
0.212423 0.013546 0.000000
0.252935 0.007150 0.000000
0.293167 0.000000 0.000000
0.333203 0.000000 0.000000
0.373095 0.000000 0.000000
0.412879 0.000000 0.000000
0.452581 0.000000 0.000000
0.492217 0.000000 0.000000
0.531802 0.000000 0.000000
0.571345 0.000000 0.000000
0.610853 0.000000 0.000000
0.650332 0.000000 0.000000
0.689787 0.000000 0.000000
0.729222 0.000000 0.000000
0.768639 0.000000 0.000000
0.808041 0.000000 0.000000
0.847430 0.000000 0.000000
0.886808 0.000000 0.000000
0.926176 0.000000 0.000000
0.965535 0.000000 0.000000
1.000000 0.000000 0.000000
1.000000 0.000000 0.000000
1.000000 0.000000 0.000000
1.000000 0.000000 0.000000
1.000000 0.000000 0.000000
1.000000 0.000000 0.000000
1.000000 0.000000 0.000000
1.000000 0.000000 0.000000
0.000000 0.070806 0.000000
0.015163 0.066914 0.000000
0.067053 0.063022 0.000000
0.115626 0.059096 0.000000
0.159999 0.054455 0.000000
0.202817 0.048949 0.000000
0.244701 0.042553 0.000000
0.285976 0.035245 0.000000
0.326831 0.027003 0.000000
0.367384 0.017807 0.000000
0.407713 0.007638 0.000000
0.447869 0.000000 0.000000
0.487892 0.000000 0.000000
0.527809 0.000000 0.000000
0.567639 0.000000 0.000000
0.607399 0.000000 0.000000
0.647101 0.000000 0.000000
0.686753 0.000000 0.000000
0.726364 0.000000 0.000000
0.765940 0.000000 0.000000
0.805485 0.000000 0.000000
0.845004 0.000000 0.000000
0.884500 0.000000 0.000000
0.923976 0.000000 0.000000
0.963434 0.000000 0.000000
1.000000 0.000000 0.000000
1.000000 0.000000 0.000000
1.000000 0.000000 0.000000
1.000000 0.000000 0.000000
1.000000 0.000000 0.000000
1.000000 0.000000 0.000000
1.000000 0.000000 0.000000
1.000000 0.000000 0.000000
0.000000 0.104883 0.000000
0.000000 0.101496 0.000000
0.048533 0.098037 0.000000
0.099947 0.094473 0.000000
0.147737 0.090151 0.000000
0.192735 0.084863 0.000000
0.236144 0.078259 0.000000
0.278553 0.070950 0.000000
0.320285 0.062708 0.000000
0.361537 0.053512 0.000000
0.402436 0.043344 0.000000
0.443067 0.032186 0.000000
0.483491 0.020023 0.000000
0.523750 0.006839 0.000000
0.563877 0.000000 0.000000
0.603895 0.000000 0.000000
0.643824 0.000000 0.000000
0.683678 0.000000 0.000000
0.723469 0.000000 0.000000
0.763207 0.000000 0.000000
0.802898 0.000000 0.000000
0.842549 0.000000 0.000000
0.882165 0.000000 0.000000
0.921751 0.000000 0.000000
0.961310 0.000000 0.000000
1.000000 0.000000 0.000000
1.000000 0.000000 0.000000
1.000000 0.000000 0.000000
1.000000 0.000000 0.000000
1.000000 0.000000 0.000000
1.000000 0.000000 0.000000
1.000000 0.000000 0.000000
1.000000 0.000000 0.000000
0.000000 0.137938 0.000000
0.000000 0.135127 0.000000
0.026633 0.132275 0.000000
0.078966 0.129354 0.000000
0.132201 0.125840 0.000000
0.180234 0.121582 0.000000
0.225669 0.116508 0.000000
0.269538 0.110524 0.000000
0.312379 0.103514 0.000000
0.354503 0.095325 0.000000
0.396107 0.085750 0.000000
0.437320 0.074407 0.000000
0.478233 0.062243 0.000000
0.518908 0.049059 0.000000
0.559393 0.034839 0.000000
0.599724 0.019570 0.000000
0.639927 0.003238 0.000000
0.680024 0.000000 0.000000
0.720031 0.000000 0.000000
0.759961 0.000000 0.000000
0.799827 0.000000 0.000000
0.839636 0.000000 0.000000
0.879396 0.000000 0.000000
0.919113 0.000000 0.000000
0.958792 0.000000 0.000000
0.998438 0.000000 0.000000
1.000000 0.000000 0.000000
1.000000 0.000000 0.000000
1.000000 0.000000 0.000000
1.000000 0.000000 0.000000
1.000000 0.000000 0.000000
1.000000 0.000000 0.000000
1.000000 0.000000 0.000000
0.000000 0.170993 0.000000
0.000000 0.168601 0.000000
0.000655 0.166183 0.000000
0.052989 0.163717 0.000000
0.111934 0.160764 0.000000
0.164456 0.157207 0.000000
0.212681 0.152998 0.000000
0.258483 0.148080 0.000000
0.302753 0.142387 0.000000
0.345983 0.135834 0.000000
0.388469 0.128318 0.000000
0.430405 0.119705 0.000000
0.471919 0.109816 0.000000
0.513104 0.098408 0.000000
0.554026 0.085122 0.000000
0.594736 0.069651 0.000000
0.635271 0.053319 0.000000
0.675661 0.035911 0.000000
0.715929 0.017416 0.000000
0.756093 0.000000 0.000000
0.796168 0.000000 0.000000
0.836166 0.000000 0.000000
0.876098 0.000000 0.000000
0.915972 0.000000 0.000000
0.955795 0.000000 0.000000
0.995573 0.000000 0.000000
1.000000 0.000000 0.000000
1.000000 0.000000 0.000000
1.000000 0.000000 0.000000
1.000000 0.000000 0.000000
1.000000 0.000000 0.000000
1.000000 0.000000 0.000000
1.000000 0.000000 0.000000
0.000000 0.204048 0.000000
0.000000 0.201973 0.000000
0.000000 0.199882 0.000000
0.022814 0.197754 0.000000
0.084905 0.195213 0.000000
0.144541 0.192165 0.000000
0.196711 0.188574 0.000000
0.245092 0.184402 0.000000
0.291206 0.179606 0.000000
0.335829 0.174132 0.000000
0.379410 0.167919 0.000000
0.422230 0.160891 0.000000
0.464476 0.152956 0.000000
0.506276 0.143994 0.000000
0.547724 0.133852 0.000000
0.588887 0.122323 0.000000
0.629818 0.109119 0.000000
0.670556 0.093812 0.000000
0.711132 0.075589 0.000000
0.751571 0.055994 0.000000
0.791894 0.035288 0.000000
0.832116 0.013461 0.000000
0.872251 0.000000 0.000000
0.912310 0.000000 0.000000
0.952302 0.000000 0.000000
0.992235 0.000000 0.000000
1.000000 0.000000 0.000000
1.000000 0.000000 0.000000
1.000000 0.000000 0.000000
1.000000 0.000000 0.000000
1.000000 0.000000 0.000000
1.000000 0.000000 0.000000
1.000000 0.000000 0.000000
0.000000 0.237103 0.000000
0.000000 0.235277 0.000000
0.000000 0.233438 0.000000
0.000000 0.231572 0.000000
0.050216 0.229348 0.000000
0.119017 0.226685 0.000000
0.177063 0.223559 0.000000
0.228965 0.219941 0.000000
0.277477 0.215799 0.000000
0.323859 0.211098 0.000000
0.368794 0.205797 0.000000
0.412693 0.199846 0.000000
0.455821 0.193190 0.000000
0.498357 0.185760 0.000000
0.540429 0.177470 0.000000
0.582128 0.168217 0.000000
0.623524 0.157865 0.000000
0.664671 0.146238 0.000000
0.705608 0.133097 0.000000
0.746369 0.118102 0.000000
0.786980 0.100742 0.000000
0.827461 0.079936 0.000000
0.867831 0.056977 0.000000
0.908104 0.032874 0.000000
0.948292 0.007619 0.000000
0.988404 0.000000 0.000000
1.000000 0.000000 0.000000
1.000000 0.000000 0.000000
1.000000 0.000000 0.000000
1.000000 0.000000 0.000000
1.000000 0.000000 0.000000
1.000000 0.000000 0.000000
1.000000 0.000000 0.000000
0.000000 0.270157 0.000000
0.000000 0.268530 0.000000
0.000000 0.266894 0.000000
0.000000 0.265235 0.000000
0.011328 0.263261 0.000000
0.084938 0.260903 0.000000
0.152621 0.258139 0.000000
0.209528 0.254949 0.000000
0.261220 0.251308 0.000000
0.309842 0.247191 0.000000
0.356456 0.242567 0.000000
0.401670 0.237404 0.000000
0.445858 0.231664 0.000000
0.489269 0.225300 0.000000
0.532077 0.218261 0.000000
0.574405 0.210483 0.000000
0.616345 0.201891 0.000000
0.657966 0.192389 0.000000
0.699322 0.181861 0.000000
0.740454 0.170153 0.000000
0.781397 0.157063 0.000000
0.822177 0.142316 0.000000
0.862817 0.125509 0.000000
0.903335 0.106028 0.000000
0.943746 0.082833 0.000000
0.984064 0.056174 0.000000
1.000000 0.028585 0.000000
1.000000 0.000000 0.000000
1.000000 0.000000 0.000000
1.000000 0.000000 0.000000
1.000000 0.000000 0.000000
1.000000 0.000000 0.000000
1.000000 0.000000 0.000000
0.000000 0.303212 0.000000
0.000000 0.301748 0.000000
0.000000 0.300277 0.000000
0.000000 0.298786 0.000000
0.000000 0.297015 0.000000
0.041343 0.294901 0.000000
0.121372 0.292429 0.000000
0.185904 0.289579 0.000000
0.241953 0.286335 0.000000
0.293475 0.282675 0.000000
0.342190 0.278578 0.000000
0.389009 0.274019 0.000000
0.434472 0.268970 0.000000
0.478923 0.263400 0.000000
0.522597 0.257273 0.000000
0.565659 0.250547 0.000000
0.608230 0.243172 0.000000
0.650399 0.235093 0.000000
0.692236 0.226238 0.000000
0.733794 0.216523 0.000000
0.775116 0.205844 0.000000
0.816237 0.194067 0.000000
0.857184 0.181020 0.000000
0.897981 0.166473 0.000000
0.938646 0.150104 0.000000
0.979196 0.131441 0.000000
1.000000 0.109740 0.000000
1.000000 0.083694 0.000000
1.000000 0.053504 0.000000
1.000000 0.022347 0.000000
1.000000 0.000000 0.000000
1.000000 0.000000 0.000000
1.000000 0.000000 0.000000
0.000000 0.336267 0.000000
0.000000 0.334938 0.000000
0.000000 0.333604 0.000000
0.000000 0.332253 0.000000
0.000000 0.330649 0.000000
0.000000 0.328737 0.000000
0.078631 0.326502 0.000000
0.156625 0.323931 0.000000
0.218968 0.321009 0.000000
0.274347 0.317718 0.000000
0.325729 0.314043 0.000000
0.374526 0.309963 0.000000
0.421526 0.305458 0.000000
0.467213 0.300504 0.000000
0.511905 0.295076 0.000000
0.555822 0.289144 0.000000
0.599122 0.282674 0.000000
0.641922 0.275626 0.000000
0.684309 0.267956 0.000000
0.726353 0.259611 0.000000
0.768107 0.250526 0.000000
0.809614 0.240626 0.000000
0.850909 0.229817 0.000000
0.892020 0.217981 0.000000
0.932972 0.204970 0.000000
0.973783 0.190590 0.000000
1.000000 0.174575 0.000000
1.000000 0.156552 0.000000
1.000000 0.135964 0.000000
1.000000 0.111905 0.000000
1.000000 0.082715 0.000000
1.000000 0.048894 0.000000
1.000000 0.014092 0.000000
0.000000 0.369322 0.000000
0.000000 0.368107 0.000000
0.000000 0.366888 0.000000
0.000000 0.365654 0.000000
0.000000 0.364191 0.000000
0.000000 0.362447 0.000000
0.025989 0.360412 0.000000
0.118860 0.358072 0.000000
0.191148 0.355416 0.000000
0.251877 0.352429 0.000000
0.306720 0.349099 0.000000
0.357984 0.345410 0.000000
0.406852 0.341345 0.000000
0.454012 0.336886 0.000000
0.499902 0.332013 0.000000
0.544815 0.326705 0.000000
0.588958 0.320937 0.000000
0.632481 0.314680 0.000000
0.675497 0.307903 0.000000
0.718093 0.300569 0.000000
0.760335 0.292636 0.000000
0.802278 0.284055 0.000000
0.843964 0.274767 0.000000
0.885429 0.264704 0.000000
0.926700 0.253781 0.000000
0.967803 0.241895 0.000000
1.000000 0.228915 0.000000
1.000000 0.214674 0.000000
1.000000 0.198952 0.000000
1.000000 0.181447 0.000000
1.000000 0.161723 0.000000
1.000000 0.139117 0.000000
1.000000 0.112519 0.000000
0.000000 0.402377 0.000000
0.000000 0.401259 0.000000
0.000000 0.400139 0.000000
0.000000 0.399005 0.000000
0.000000 0.397661 0.000000
0.000000 0.396060 0.000000
0.000000 0.394193 0.000000
0.066034 0.392049 0.000000
0.156531 0.389616 0.000000
0.225184 0.386885 0.000000
0.284672 0.383843 0.000000
0.339074 0.380478 0.000000
0.390239 0.376777 0.000000
0.439169 0.372724 0.000000
0.486474 0.368306 0.000000
0.532548 0.363503 0.000000
0.577664 0.358298 0.000000
0.622017 0.352669 0.000000
0.665749 0.346592 0.000000
0.708970 0.340042 0.000000
0.751764 0.332989 0.000000
0.794197 0.325397 0.000000
0.836321 0.317229 0.000000
0.878181 0.308437 0.000000
0.919810 0.298970 0.000000
0.961239 0.288762 0.000000
1.000000 0.277740 0.000000
1.000000 0.265809 0.000000
1.000000 0.252855 0.000000
1.000000 0.238734 0.000000
1.000000 0.223259 0.000000
1.000000 0.206178 0.000000
1.000000 0.187146 0.000000
0.000000 0.435432 0.000000
0.000000 0.434398 0.000000
0.000000 0.433362 0.000000
0.000000 0.432315 0.000000
0.000000 0.431073 0.000000
0.000000 0.429595 0.000000
0.000000 0.427872 0.000000
0.003830 0.425895 0.000000
0.110977 0.423654 0.000000
0.192827 0.421140 0.000000
0.258876 0.418343 0.000000
0.317381 0.415252 0.000000
0.371415 0.411856 0.000000
0.422493 0.408144 0.000000
0.471479 0.404103 0.000000
0.518914 0.399719 0.000000
0.565156 0.394977 0.000000
0.610460 0.389860 0.000000
0.655008 0.384352 0.000000
0.698938 0.378430 0.000000
0.742353 0.372075 0.000000
0.785335 0.365259 0.000000
0.827950 0.357955 0.000000
0.870250 0.350131 0.000000
0.912276 0.341749 0.000000
0.954066 0.332769 0.000000
0.995647 0.323140 0.000000
1.000000 0.312804 0.000000
1.000000 0.301692 0.000000
1.000000 0.289722 0.000000
1.000000 0.276792 0.000000
1.000000 0.262774 0.000000
1.000000 0.247509 0.000000
0.000000 0.468487 0.000000
0.000000 0.467527 0.000000
0.000000 0.466564 0.000000
0.000000 0.465591 0.000000
0.000000 0.464439 0.000000
0.000000 0.463067 0.000000
0.000000 0.461470 0.000000
0.000000 0.459637 0.000000
0.046626 0.457561 0.000000
0.152110 0.455233 0.000000
0.228229 0.452646 0.000000
0.292318 0.449790 0.000000
0.350022 0.446655 0.000000
0.403745 0.443233 0.000000
0.454748 0.439511 0.000000
0.503784 0.435480 0.000000
0.551335 0.431126 0.000000
0.597733 0.426437 0.000000
0.643211 0.421399 0.000000
0.687941 0.415995 0.000000
0.732055 0.410208 0.000000
0.775654 0.404020 0.000000
0.818816 0.397408 0.000000
0.861606 0.390350 0.000000
0.904074 0.382818 0.000000
0.946262 0.374783 0.000000
0.988207 0.366209 0.000000
1.000000 0.357057 0.000000
1.000000 0.347283 0.000000
1.000000 0.336831 0.000000
1.000000 0.325641 0.000000
1.000000 0.313636 0.000000
1.000000 0.300725 0.000000
0.000000 0.501542 0.000000
0.000000 0.500646 0.000000
0.000000 0.499748 0.000000
0.000000 0.498841 0.000000
0.000000 0.497766 0.000000
0.000000 0.496488 0.000000
0.000000 0.495000 0.000000
0.000000 0.493293 0.000000
0.000000 0.491361 0.000000
0.096647 0.489196 0.000000
0.190834 0.486791 0.000000
0.263013 0.484138 0.000000
0.325569 0.481229 0.000000
0.382611 0.478055 0.000000
0.436065 0.474608 0.000000
0.487003 0.470878 0.000000
0.536083 0.466856 0.000000
0.583742 0.462529 0.000000
0.630281 0.457887 0.000000
0.675920 0.452918 0.000000
0.720822 0.447606 0.000000
0.765110 0.441937 0.000000
0.808883 0.435895 0.000000
0.852216 0.429461 0.000000
0.895173 0.422615 0.000000
0.937803 0.415334 0.000000
0.980148 0.407594 0.000000
1.000000 0.399365 0.000000
1.000000 0.390615 0.000000
1.000000 0.381309 0.000000
1.000000 0.371402 0.000000
1.000000 0.360847 0.000000
1.000000 0.349585 0.000000
0.000000 0.534597 0.000000
0.000000 0.533758 0.000000
0.000000 0.532917 0.000000
0.000000 0.532068 0.000000
0.000000 0.531062 0.000000
0.000000 0.529866 0.000000
0.000000 0.528474 0.000000
0.000000 0.526878 0.000000
0.000000 0.525072 0.000000
0.020129 0.523050 0.000000
0.142864 0.520805 0.000000
0.228062 0.518329 0.000000
0.297349 0.515617 0.000000
0.358674 0.512660 0.000000
0.415157 0.509451 0.000000
0.468378 0.505983 0.000000
0.519257 0.502245 0.000000
0.568378 0.498231 0.000000
0.616134 0.493928 0.000000
0.662805 0.489329 0.000000
0.708594 0.484420 0.000000
0.753656 0.479189 0.000000
0.798109 0.473625 0.000000
0.842047 0.467711 0.000000
0.885544 0.461433 0.000000
0.928660 0.454772 0.000000
0.971446 0.447710 0.000000
1.000000 0.440225 0.000000
1.000000 0.432293 0.000000
1.000000 0.423887 0.000000
1.000000 0.414977 0.000000
1.000000 0.405529 0.000000
1.000000 0.395502 0.000000
0.000000 0.567652 0.000000
0.000000 0.566863 0.000000
0.000000 0.566073 0.000000
0.000000 0.565276 0.000000
0.000000 0.564331 0.000000
0.000000 0.563208 0.000000
0.000000 0.561901 0.000000
0.000000 0.560404 0.000000
0.000000 0.558710 0.000000
0.000000 0.556814 0.000000
0.073561 0.554709 0.000000
0.184914 0.552391 0.000000
0.264280 0.549851 0.000000
0.331349 0.547085 0.000000
0.391662 0.544085 0.000000
0.447667 0.540845 0.000000
0.500685 0.537357 0.000000
0.551512 0.533613 0.000000
0.600669 0.529605 0.000000
0.648515 0.525324 0.000000
0.695307 0.520762 0.000000
0.741237 0.515908 0.000000
0.786449 0.510750 0.000000
0.831057 0.505278 0.000000
0.875152 0.499479 0.000000
0.918805 0.493338 0.000000
0.962075 0.486841 0.000000
1.000000 0.479971 0.000000
1.000000 0.472709 0.000000
1.000000 0.465035 0.000000
1.000000 0.456926 0.000000
1.000000 0.448357 0.000000
1.000000 0.439300 0.000000
0.000000 0.600707 0.000000
0.000000 0.599963 0.000000
0.000000 0.599219 0.000000
0.000000 0.598468 0.000000
0.000000 0.597578 0.000000
0.000000 0.596520 0.000000
0.000000 0.595290 0.000000
0.000000 0.593880 0.000000
0.000000 0.592286 0.000000
0.000000 0.590502 0.000000
0.000000 0.588523 0.000000
0.127869 0.586343 0.000000
0.224542 0.583957 0.000000
0.299778 0.581360 0.000000
0.365090 0.578544 0.000000
0.424556 0.575505 0.000000
0.480148 0.572236 0.000000
0.532986 0.568730 0.000000
0.583767 0.564980 0.000000
0.632958 0.560978 0.000000
0.680886 0.556718 0.000000
0.727791 0.552189 0.000000
0.773851 0.547384 0.000000
0.819205 0.542292 0.000000
0.863960 0.536903 0.000000
0.908204 0.531205 0.000000
0.952006 0.525187 0.000000
0.995423 0.518835 0.000000
1.000000 0.512135 0.000000
1.000000 0.505069 0.000000
1.000000 0.497622 0.000000
1.000000 0.489773 0.000000
1.000000 0.481501 0.000000
0.000000 0.633762 0.000000
0.000000 0.633059 0.000000
0.000000 0.632356 0.000000
0.000000 0.631646 0.000000
0.000000 0.630805 0.000000
0.000000 0.629806 0.000000
0.000000 0.628644 0.000000
0.000000 0.627313 0.000000
0.000000 0.625808 0.000000
0.000000 0.624125 0.000000
0.000000 0.622258 0.000000
0.042601 0.620203 0.000000
0.174597 0.617954 0.000000
0.262599 0.615507 0.000000
0.334742 0.612856 0.000000
0.398626 0.609995 0.000000
0.457373 0.606920 0.000000
0.512605 0.603625 0.000000
0.565283 0.600102 0.000000
0.616021 0.596347 0.000000
0.665243 0.592351 0.000000
0.713248 0.588108 0.000000
0.760257 0.583611 0.000000
0.806440 0.578850 0.000000
0.851927 0.573817 0.000000
0.896822 0.568502 0.000000
0.941208 0.562897 0.000000
0.985152 0.556989 0.000000
1.000000 0.550766 0.000000
1.000000 0.544217 0.000000
1.000000 0.537327 0.000000
1.000000 0.530080 0.000000
1.000000 0.522460 0.000000
0.000000 0.666817 0.000000
0.000000 0.666151 0.000000
0.000000 0.665485 0.000000
0.000000 0.664812 0.000000
0.000000 0.664016 0.000000
0.000000 0.663070 0.000000
0.000000 0.661970 0.000000
0.000000 0.660710 0.000000
0.000000 0.659286 0.000000
0.000000 0.657693 0.000000
0.000000 0.655927 0.000000
0.000000 0.653983 0.000000
0.105362 0.651858 0.000000
0.217406 0.649545 0.000000
0.299564 0.647041 0.000000
0.369299 0.644341 0.000000
0.431997 0.641440 0.000000
0.490126 0.638332 0.000000
0.545042 0.635012 0.000000
0.597575 0.631475 0.000000
0.648276 0.627714 0.000000
0.697526 0.623724 0.000000
0.745601 0.619497 0.000000
0.792708 0.615027 0.000000
0.839007 0.610306 0.000000
0.884620 0.605327 0.000000
0.929647 0.600081 0.000000
0.974168 0.594558 0.000000
1.000000 0.588749 0.000000
1.000000 0.582643 0.000000
1.000000 0.576230 0.000000
1.000000 0.569496 0.000000
1.000000 0.562428 0.000000
0.000000 0.699871 0.000000
0.000000 0.699240 0.000000
0.000000 0.698607 0.000000
0.000000 0.697968 0.000000
0.000000 0.697212 0.000000
0.000000 0.696315 0.000000
0.000000 0.695270 0.000000
0.000000 0.694074 0.000000
0.000000 0.692723 0.000000
0.000000 0.691213 0.000000
0.000000 0.689538 0.000000
0.000000 0.687696 0.000000
0.004085 0.685681 0.000000
0.159088 0.683490 0.000000
0.257814 0.681119 0.000000
0.335732 0.678563 0.000000
0.403535 0.675817 0.000000
0.465235 0.672878 0.000000
0.522827 0.669739 0.000000
0.577461 0.666397 0.000000
0.629865 0.662847 0.000000
0.680531 0.659081 0.000000
0.729806 0.655096 0.000000
0.777947 0.650884 0.000000
0.825146 0.646440 0.000000
0.871553 0.641756 0.000000
0.917285 0.636825 0.000000
0.962438 0.631640 0.000000
1.000000 0.626193 0.000000
1.000000 0.620474 0.000000
1.000000 0.614474 0.000000
1.000000 0.608183 0.000000
1.000000 0.601590 0.000000
0.000000 0.732926 0.000000
0.000000 0.732325 0.000000
0.000000 0.731723 0.000000
0.000000 0.731115 0.000000
0.000000 0.730396 0.000000
0.000000 0.729542 0.000000
0.000000 0.728549 0.000000
0.000000 0.727412 0.000000
0.000000 0.726127 0.000000
0.000000 0.724691 0.000000
0.000000 0.723099 0.000000
0.000000 0.721349 0.000000
0.000000 0.719435 0.000000
0.071529 0.717354 0.000000
0.206224 0.715103 0.000000
0.296611 0.712677 0.000000
0.371297 0.710072 0.000000
0.437514 0.707285 0.000000
0.498361 0.704310 0.000000
0.555481 0.701144 0.000000
0.609864 0.697781 0.000000
0.662151 0.694218 0.000000
0.712785 0.690448 0.000000
0.762085 0.686467 0.000000
0.810287 0.682269 0.000000
0.857572 0.677848 0.000000
0.904081 0.673198 0.000000
0.949926 0.668312 0.000000
0.995197 0.663184 0.000000
1.000000 0.657805 0.000000
1.000000 0.652168 0.000000
1.000000 0.646264 0.000000
1.000000 0.640084 0.000000
0.000000 0.765981 0.000000
0.000000 0.765408 0.000000
0.000000 0.764834 0.000000
0.000000 0.764255 0.000000
0.000000 0.763569 0.000000
0.000000 0.762755 0.000000
0.000000 0.761808 0.000000
0.000000 0.760725 0.000000
0.000000 0.759501 0.000000
0.000000 0.758133 0.000000
0.000000 0.756617 0.000000
0.000000 0.754950 0.000000
0.000000 0.753128 0.000000
0.000000 0.751148 0.000000
0.136971 0.749006 0.000000
0.249671 0.746698 0.000000
0.334258 0.744221 0.000000
0.406394 0.741572 0.000000
0.471285 0.738745 0.000000
0.531394 0.735738 0.000000
0.588098 0.732546 0.000000
0.642255 0.729164 0.000000
0.694435 0.725589 0.000000
0.745040 0.721815 0.000000
0.794362 0.717839 0.000000
0.842621 0.713653 0.000000
0.889986 0.709254 0.000000
0.936592 0.704635 0.000000
0.982543 0.699790 0.000000
1.000000 0.694713 0.000000
1.000000 0.689397 0.000000
1.000000 0.683835 0.000000
1.000000 0.678019 0.000000
0.000000 0.799036 0.000000
0.000000 0.798489 0.000000
0.000000 0.797940 0.000000
0.000000 0.797387 0.000000
0.000000 0.796733 0.000000
0.000000 0.795955 0.000000
0.000000 0.795051 0.000000
0.000000 0.794017 0.000000
0.000000 0.792849 0.000000
0.000000 0.791543 0.000000
0.000000 0.790096 0.000000
0.000000 0.788506 0.000000
0.000000 0.786768 0.000000
0.000000 0.784879 0.000000
0.028232 0.782837 0.000000
0.190303 0.780637 0.000000
0.290759 0.778277 0.000000
0.371049 0.775753 0.000000
0.441117 0.773062 0.000000
0.504884 0.770199 0.000000
0.564348 0.767161 0.000000
0.620681 0.763945 0.000000
0.674633 0.760546 0.000000
0.726717 0.756960 0.000000
0.777295 0.753183 0.000000
0.826638 0.749209 0.000000
0.874950 0.745036 0.000000
0.922391 0.740656 0.000000
0.969087 0.736066 0.000000
1.000000 0.731259 0.000000
1.000000 0.726229 0.000000
1.000000 0.720971 0.000000
1.000000 0.715478 0.000000
0.000000 0.832091 0.000000
0.000000 0.831567 0.000000
0.000000 0.831043 0.000000
0.000000 0.830514 0.000000
0.000000 0.829887 0.000000
0.000000 0.829144 0.000000
0.000000 0.828279 0.000000
0.000000 0.827290 0.000000
0.000000 0.826173 0.000000
0.000000 0.824924 0.000000
0.000000 0.823542 0.000000
0.000000 0.822021 0.000000
0.000000 0.820361 0.000000
0.000000 0.818556 0.000000
0.000000 0.816605 0.000000
0.105442 0.814505 0.000000
0.237774 0.812252 0.000000
0.330217 0.809842 0.000000
0.407183 0.807274 0.000000
0.475539 0.804543 0.000000
0.538338 0.801647 0.000000
0.597234 0.798581 0.000000
0.653235 0.795342 0.000000
0.707002 0.791927 0.000000
0.758996 0.788330 0.000000
0.809549 0.784550 0.000000
0.858912 0.780580 0.000000
0.907274 0.776417 0.000000
0.954787 0.772056 0.000000
1.000000 0.767492 0.000000
1.000000 0.762720 0.000000
1.000000 0.757735 0.000000
1.000000 0.752530 0.000000
0.000000 0.865146 0.000000
0.000000 0.864644 0.000000
0.000000 0.864142 0.000000
0.000000 0.863634 0.000000
0.000000 0.863034 0.000000
0.000000 0.862322 0.000000
0.000000 0.861494 0.000000
0.000000 0.860546 0.000000
0.000000 0.859476 0.000000
0.000000 0.858281 0.000000
0.000000 0.856957 0.000000
0.000000 0.855502 0.000000
0.000000 0.853912 0.000000
0.000000 0.852185 0.000000
0.000000 0.850318 0.000000
0.000000 0.848309 0.000000
0.168485 0.846154 0.000000
0.281764 0.843850 0.000000
0.368487 0.841395 0.000000
0.442798 0.838785 0.000000
0.509713 0.836017 0.000000
0.571671 0.833089 0.000000
0.630063 0.829997 0.000000
0.685764 0.826737 0.000000
0.739362 0.823306 0.000000
0.791274 0.819701 0.000000
0.841804 0.815917 0.000000
0.891184 0.811951 0.000000
0.939594 0.807798 0.000000
0.987174 0.803454 0.000000
